!!!!SEGMENT: pl-cz--ii-87--004-002_hepner--msza-st-gloria.krn
!!!cenid: 18xx:1189
!!!COM: Hepner
!!!COM-rismID: pe30021002
!!!CDT: ~1800-~1899
!!!CNT:
!!!OPR: Msza St.
!!!OTL: Gloria
!!!OMV: 002
!!!PDT: 1888
!!!AGN: Sacred; Mass
!!!SMS-siglum: PL-CZ
!!!SMS-shelfmark: II-87
!!!SMS-shelfwork: 004-002 M
!!!SMS-variant:
!!!SMS-altvar:
!!!NIFC-rismSourceID: 300033223
!!!NIFC-rismChildID: 300033227
!!!NIFC-islandoraID: pl-cz:33881
!!!URL-pdf-islandora: https://repozytorium.nifc.pl/islandora/object/pl-cz%3A33881/datastream/PDF/view
!!!URL-scan: https://polish.musicsources.pl/pl/lokalizacje/galeria/rekopisy/6814/1 @EN{Scan on Polish Music Sources Website} @PL{Skany w portalu Dziedzictwo Muzyki Polskiej w otwartym dostępie}
!!!ONB-nifc: UWAGA: części Mszy: Kirie, Gloria, Graduale, Credo, Offertorium, Sanctus, Benedictus, Agnus, Communio, Benedicio
!!!OMD: Allegro
!!!AIN: 1 organ 1 vox
!!!key: C
**kern	**kern	**text
*part2	*part1	*part1
*staff2	*staff1	*staff1
*I"Organo	*I"Voce	*
*Iorgan	*Ivox	*
*ICklav	*ICvox	*
*clefF4	*clefG2	*
*k[]	*k[]	*
*C:	*C:	*
*M4/4	*M4/4	*
*met(c)	*met(c)	*
=1	=1	=1
(8C\L	2.e/ 2.g/ 2.cc/	.
16D\L	.	.
16E\JJ	.	.
16F\LL	.	.
16G\	.	.
16A\	.	.
16B\JJ)	.	.
4C\ 4c\	.	.
8.C\L 8.c\	8.e\L 8.g\ 8.cc\	.
16C\Jk 16c\	16e\Jk 16g\ 16cc\	.
=2	=2	=2
(8FF/L 8F/	2.f/ 2.a/ 2.cc/	.
16GG/L	.	.
16AA/JJ	.	.
16BB-X/LL	.	.
16C/	.	.
16D/	.	.
16E/JJ)	.	.
4F\	.	.
8.FF/L 8.F/	8.f\L 8.a\ 8.cc\	.
16FF/Jk 16F/	16f\Jk 16a\ 16cc\	.
=3	=3	=3
8GG/L 8G/	2.e/ 2.g/ 2.cc/	.
16AA/L	.	.
16BBn/JJ	.	.
16C/LL	.	.
16D/	.	.
16E/	.	.
16F/JJ	.	.
4G\	.	.
8.GG/L 8.G/	8.d/L 8.g/ 8.b/	.
16GG/Jk 16G/	16d/Jk 16g/ 16b/	.
=4	=4	=4
4C\	4e/ 4g/ 4cc/	.
4C\ 4c\	4e/ 4g/ 4cc/	.
4C\ 4c\	4e/ 4g/ 4cc/	.
8G\L	8g/L	Chwal-
8G\J	8g/J	-cie
!!LO:LB:g=original
=5	=5	=5
4c\	4cc\	Bo-
4G\	4g/	-ga
4E\	4e/	wszy-
4C\	4c/	-stkie
=6	=6	=6
4F\	4c/ 4f/ 4a/	ro-
4E\	4c/ 4e/ 4g/	-dy
4r	4r	.
8.C/L	4g\ 4cc\ 4ee\	Chwal-
16E/Jk	.	.
=7	=7	=7
4G\	4g\ 4b\ 4dd\	-cie
8.C\L	4g\ 4cc\ 4ee\	go
16E\Jk	.	.
4G\	4g\ 4b\ 4dd\	wszys-
8.C\L	4g\ 4cc\ 4ee\	-tkie
16E\Jk	.	.
=8	=8	=8
4G\	4g\ 4b\ 4dd\	I-
!LO:N:vis=8.	!	!
8GG\L 8G\	8B/L 8d/ 8g/	-sto-
8GG\J 8G\	8B/J 8d/ 8g/	.
4G\	4B/ 4d/ 4g/	-ty
4r	4r	.
=9	=9	=9
2GG\ 2G\	2g\ 2b\ 2dd\	Bóg
4G\	4g\ 4b\ 4dd\	to
4G\	4g\ 4b\ 4dd\	po-
=10	=10	=10
*	*^	*
2F#X\	2dd/	2d\ 2a\	-ko-
2ryy	4dd\	2ryy	-ju
.	4cc\	.	i
*	*v	*v	*
=11	=11	=11
4G\	4d\ 4g\ 4b\	zgo-
4G\	8.d\L 8.g\ 8.b\	-dy
.	16d\Jk 16g\ 16b\	.
8G\L	4d\ 4g\ 4b\	.
8D\	.	.
8BB\	4r	.
8D\J	.	.
!!LO:LB:g=original
=12	=12	=12
4GG/	4g\ 4b\ 4dd\	Bóg
4BB/	4g\ 4dd\ 4gg\	nie-
4C/	4g\ 4cc\ 4ee-X\	-win-
4E-X\	4g\ 4cc\	-nych
=13	=13	=13
4GG/	4g\ 4b\ 4dd\	Bóg
4BB/	4g\ 4dd\ 4ff\	sie-
4C/	4g\ 4cc\ 4ee-X\	-ro-
4E-X\	4g\ 4cc\	-ty
=14	=14	=14
4GG\ 4G\	4g\ 4b\ 4dd\	chwal-
4GG\ 4G\	4g\ 4cc\ 4ee-X\	-cie
4GG\ 4G\	4g\ 4b\ 4dd\	go
4GG\ 4G\	4g\ 4cc\ 4ee-\	ro-
=15	=15	=15
4GG\ 4G\	4g\ 4b\ 4dd\	-dy
4r	8.g/L	.
.	16g/Jk	.
4r	4g/	.
4G\	8g/L	chwal-
.	8g/J	-cie
=16	=16	=16
4C\ 4c\	4cc\	wszys-
4G\	4g/	-tkie
4E\	4e/	ser-
4C/	4c/	-ca
!!LO:PB:g=original
=17	=17	=17
4AA/ 4F/	4c/ 4f/ 4a/	gło-
4C/	4c/ 4e/ 4g/	-sy
4r	4r	.
8.C\L	4g\ 4cc\ 4ee\	Bóg
16E\Jk	.	.
=18	=18	=18
4G\	4g\ 4b\ 4dd\	to
8.C\L	4g\ 4cc\ 4ee\	mi-
16E\Jk	.	.
4G\	4g\ 4b\ 4dd\	-ło-
8.C\L	4g\ 4cc\ 4ee\	-sci
16E\Jk	.	.
=19	=19	=19
4G\	4g\ 4b\ 4dd\	o-
8.G\L	8.B/L 8.d/ 8.g/	-pie-
16G\Jk	16B/Jk 16d/ 16g/	.
8G\L	4B/ 4d/ 4g/	-ki
8F\	.	.
8E\	4r	.
8D\J	.	.
=20	=20	=20
2C\	2e/ 2g/ 2cc/	chwal-
4C/	4c/ 4e/ 4g/	-cie
4C/	4c/ 4e/ 4g/	go
=21	=21	=21
2C/	2c/ 2f/ 2a/	zie-
2C/	2c/ 2e/ 2g/	-mie
=22||	=22||	=22||
4F\	4c/ 4f/ 4a/	nie-
4BB/	4c/ 4f/ 4a/	.
4G\	4d/ 4f/ 4b/	-bio-
4GG/	4d/ 4f/ 4b/	.
!!LO:LB:g=original
=23	=23	=23
4C\	2c/ 2e/ 2g/ 2cc/	-sy
4E\	.	.
4G\	2r	.
4c\	.	.
=24	=24	=24
*	*^	*
2A\	2ff/	2a\ 2cc\	Chwal-
!	!	!LO:TX:a:t=d	!
2B\	2ff/	2g\ 2dd\	-cie
*	*v	*v	*
=25	=25	=25
2c\	2g\ 2cc\ 2ee\	te-
2G\	2g\ 2cc\ 2ee\	-razz
=26	=26	=26
*	*^	*
2G\	4.dd/	2f\ 2g\	i
.	8cc/	.	na
2G\	2d\ 2f\ 2g\ 2b\	2ryy	wie-
*	*v	*v	*
=27	=27	=27
2C\ 2c\	2e\ 2g\ 2cc\	-ki
4C\ 4G\	4c/ 4e/	Chwal-
4C\ 4G\	4c/ 4e/	-cie
=28	=28	=28
4C\ 4A\	4c/ 4f/	te-
4C\ 4A\	4c/ 4f/	-raz
4C\ 4F\	4c/ 4a/	i
4F\	4c/ 4a/	na
=29	=29	=29
4C/	4c/ 4g/	wie-
4C/	4c/ 4g/	-ki
4C/	4e\ 4g\ 4cc\	i
4E\	4e\ 4g\ 4cc\	na
=30	=30	=30
2GG\ 2G\	2e/ 2g/ 2cc/	wie-
2GG\ 2G\	2d/ 2f/ 2g/ 2b/	.
!!LO:LB:g=original
=31	=31	=31
*^	*^	*
4C/	2ryy	4g/ 4cc/	4c\ 4e\	-ki.
4r	.	4r	4ryy	.
4CC\ 4C\	4E/ 4G/ 4c/	2r	2ryy	.
4r	4rc	.	.	.
*	*	*v	*v	*
=32	=32	=32	=32
4CC\ 4C\	4E/ 4G/ 4c/	1r	.
4r	4rc	.	.
4CC\ 4C\	4E/ 4G/ 4c/	.	.
4r	4rc	.	.
=33	=33	=33	=33
1CC/ 1C/	1E\ 1G\ 1c\	1r	.
*v	*v	*	*
==	==	==
*-	*-	*-
!!!system-decoration: [(s1,s2)]
!!!ENC: Tomasz Grochalski
!!!END: 2020-11-07
!!!ENC: Marta Chmielewska
!!!END: 2021-11-15
!!!YEC: Copyright 2022 Narodowy Instytut Fryderyka Chopina (https://polishscores.org)
!!!YEM: License CC-BY-4.0 (https://creativecommons.org/licenses/by/4.0)
